layouts/icon-pack/spell_blizzard.svg

<?xml version="1.0" encoding="UTF-8"?>
<svg width="1200pt" height="1200pt" version="1.1" viewBox="0 0 1200 1200" xmlns="http://www.w3.org/2000/svg">
 <g fill="#fff">
  <path d="m1097 742.27c-2.8359-24.07-9.8438-47.156-15.258-70.711-5.4102-23.203-6.332-47.23-2.7188-70.781 6.75-47.953-1.8516-88.781-20.016-133.24-9.0938-22.242-20.367-44.531-18.328-68.719 7.5938-90.703 26.625-125.53 35.789-162.98 8.3203-33.914 9.8438-69.727-1.6406-103.41-25.945-76.148-105.35-63.281-120.14-25.781-14.391 36.305-17.953 78.656-6.3047 114.21 5.6484 17.25 16.875 35.367 16.031 54.047-0.86719 19.617-23.977 22.289-39.469 15.633-33.84-13.152-60.402-40.199-72.938-74.273-11.719-31.289-59.508-103.29-59.531-103.34-26.062-42.492-76.805-51.984-122.16-37.312-53.227 17.156-90.773 62.367-141.14 85.312-50.883 23.18-107.3 31.031-159 52.594-25.969 10.875-50.508 24.516-71.062 43.922-3.3555 3.4453-6.4844 7.1016-9.375 10.945-11.484 9.0938-17.602 22.805-18.445 37.992-0.44531 8.3906 7.4062 14.93 15.305 15.188s12.352-2.3438 19.242-6.1875c2.625-1.5 5.3438-5.5781 8.7891-4.8984 4.4766 0.84375 6.1641 10.453 6.1172 13.242-0.30469 17.391-12.938 33.773-22.945 47.086-15.891 21.094-44.273 59.812-73.711 35.695-27.656-22.641-21.094-70.758-16.406-101.53 5.5078-36.609 16.922-72.656 16.945-109.97 0-31.078-8.4375-63.727-30.68-86.719-21.656-22.289-53.32-25.219-72.516 1.3594-19.195 26.578-28.359 102.35-8.3672 205.83 8.9531 46.336 12.492 93.539 18.609 140.3 0.21094 1.5703 0.39844 3.1641 0.58594 4.6875 0 0.79688 0 1.5938 0.11719 2.3438 0.65625 15.625 1.7812 31.25 3.375 46.875 1.4766 14.531 3.2812 29.039 5.7188 43.453 2.5078 14.883 3.9375 31.102 11.719 44.273 1.5078 2.9609 4.8086 4.5469 8.0625 3.8672 2.6289 0.80469 5.4727 0.45703 7.8281-0.96094 8.9062-5.3438 11.719-15.445 20.062-21.234 10.781-7.1953 25.359-4.8516 34.875 3.3516 16.406 14.344 18.164 42.188 19.172 62.25 1.1484 22.641-0.63281 47.414-19.5 62.883-18.352 15.07-46.148 11.906-53.555-12.984-0.65234-2.2344-1.7422-4.3125-3.2109-6.1172-5.0156-12.117-22.594-12.492-28.125 1.3594-8.8359 22.289-4.2422 47.625 0 70.453 4.9453 26.203 10.992 51.562 8.0156 78.516-5.3672 48.75-26.578 102.12 5.1094 146.91 27.773 39.281 79.078 48.727 124.22 43.664 6.2109-0.70312 67.266-4.6875 91.641-4.9688 29.32-0.46875 119.23 2.3438 171.09 31.406 25.898 14.484 53.133 25.922 80.156 38.086 56.906 25.664 121.57 31.383 183.49 29.109 31.277-1.0938 62.406-4.7891 93.07-11.039 14.793-2.7969 29.27-7.0586 43.219-12.727 6.9336-3 13.5-6.7812 19.57-11.273 5.9688-3.293 11.375-7.5156 16.008-12.516l0.30469-0.25781c1.7969-1.3789 3.2578-3.1484 4.2656-5.1797 2.3867-3.1523 4.5039-6.5 6.3281-10.008 5.3906-10.383-0.98437-27.586-15-25.969-21.094 2.3438-68.32 15.938-80.883-8.1562-14.297-27.445 8.5078-68.156 19.664-93.094 13.363-29.766 28.227-58.832 44.531-87.094 10.758-18.75 24.117-44.836 44.227-57.234 10.641 0.16406 19.992 0.84375 25.43 14.32 6.2578 15.445 7.0312 29.789 4.8047 46.008-1.0547 7.3828 2.6016 15.469 9.1406 18.211 6.4453 5.7891 15.984 7.1719 22.922-1.5703 27.984-35.25 42.164-78.141 36.867-123.14zm-909.21-542.09c-0.35156 12.586-4.0547 22.688-14.766 30.07-7.9922 5.4844-22.43 2.0625-26.578-6.9141-4.4375-9.2734-7.0469-19.316-7.6875-29.578-0.49219-8.3438-0.14062-21.328 5.1797-28.289 3.0469-4.2031 7.3594-7.3242 12.305-8.9062 4.0703-1.6016 8.543-1.8477 12.766-0.71094 4.2188 1.1406 7.9609 3.6094 10.672 7.0391 8.1562 9.6562 8.4375 25.289 8.1094 37.289zm68.789 767.79c-2.5547 1.5625-5.2852 2.8203-8.1328 3.75-23.836 13.172-50.25-1.875-60.938-24.281-0.14062-0.23438-0.30469-0.44531-0.46875-0.67969-2.1016-3.2891-3.3125-7.0703-3.5156-10.969-5.2969-22.125-0.98438-49.031 20.602-60.938 23.789-13.031 54.516-1.125 67.969 21.094 13.969 23.32 8.2031 57.234-15.516 72.023zm518.65-660.94c4.3359-18.75 23.625-32.602 42.891-26.742 1.0078 0.29297 1.9961 0.65234 2.9531 1.0781 13.125 3.7969 22.852 14.062 27.633 27.305 5.7891 15.961-0.16406 35.32-14.883 44.297s-34.453 6-46.594-5.7422c-10.75-10.379-15.301-25.621-12-40.195zm-138.89-168.75c21.094-10.078 40.5-20.789 64.758-16.875 22.289 3.6328 39.703 17.25 51.562 35.883 10.898 17.109-7.3125 33.305-22.922 30.305-10.969 0-20.789-5.5078-31.758-8.4375-14.742-4.2578-30.254-5.1133-45.375-2.5078-22.125 4.0781-39.141-27.562-16.266-38.367zm128.91 573.66 84.773-43.688c5.4531-2.7695 11.773-3.2969 17.609-1.4727 5.8398 1.8281 10.73 5.8633 13.633 11.246 2.8398 5.4414 3.3867 11.789 1.5234 17.633-1.8672 5.8477-5.9922 10.703-11.461 13.492l-56.25 28.945 48.281 25.359c5.4453 2.832 9.5352 7.7266 11.359 13.586 1.8203 5.8633 1.2266 12.211-1.6562 17.633-2.9336 5.4102-7.875 9.4492-13.758 11.246-5.8867 1.8008-12.242 1.2109-17.695-1.6367l-48.281-25.336 7.7344 62.461c0.74609 6.1172-0.98047 12.281-4.793 17.121-3.8164 4.8398-9.4062 7.957-15.527 8.6602-0.9375 0-1.875 0.16406-2.7891 0.16406-5.668 0.007813-11.145-2.0547-15.395-5.8008-4.2539-3.7461-6.9883-8.918-7.6914-14.543l-11.367-94.172-54.422-28.781-58.594 52.594v66.047l78.492 53.906c5.0664 3.4609 8.5352 8.8047 9.6406 14.84 1.1055 6.0352-0.25 12.262-3.7578 17.293-3.5508 5.0273-8.9336 8.457-14.988 9.5469-6.0547 1.0938-12.297-0.23828-17.379-3.7109l-52.008-35.766v54.234c-0.25781 8.1367-4.7461 15.543-11.84 19.539-7.0898 3.9961-15.754 3.9961-22.844 0-7.0938-3.9961-11.582-11.402-11.84-19.539v-54.141l-52.031 35.766c-5.0273 3.7266-11.348 5.2617-17.523 4.2539-6.1758-1.0078-11.68-4.4727-15.262-9.6055-3.5781-5.1328-4.9297-11.496-3.7422-17.641s4.8086-11.547 10.043-14.977l78.516-53.906v-66.141l-58.945-52.57-54.492 28.594-11.367 94.172c-0.70312 5.625-3.4375 10.797-7.6914 14.543-4.25 3.7461-9.7266 5.8086-15.395 5.8008-0.91406 0-1.8516 0-2.7891-0.16406-6.1211-0.70313-11.711-3.8203-15.527-8.6602-3.8125-4.8398-5.5391-11.004-4.793-17.121l7.5469-62.391-48.281 25.336c-5.4219 2.9961-11.824 3.6953-17.766 1.9336-5.9414-1.7617-10.926-5.8359-13.84-11.305-2.9141-5.4688-3.5117-11.879-1.6602-17.793 1.8555-5.9141 6-10.836 11.516-13.664l48.281-25.359-56.25-28.945c-5.4609-2.793-9.582-7.6484-11.449-13.492-1.8672-5.8438-1.3203-12.191 1.5117-17.633 2.8867-5.4297 7.793-9.5078 13.66-11.355 5.8672-1.8438 12.223-1.3086 17.699 1.4883l84.773 43.688 55.57-29.18v-69.094l-55.453-29.18-84.773 43.688c-5.4531 3.0195-11.891 3.7109-17.859 1.918-5.9688-1.793-10.965-5.918-13.848-11.441-2.8867-5.5234-3.4258-11.977-1.4883-17.902 1.9375-5.9219 6.1836-10.812 11.773-13.566l56.25-28.945-48.281-25.359c-5.4375-2.8164-9.5273-7.6836-11.367-13.527-1.8398-5.8398-1.2734-12.176 1.5703-17.598 2.9336-5.4102 7.875-9.4492 13.758-11.246 5.8867-1.8008 12.242-1.2109 17.695 1.6367l48.281 25.336-7.5469-62.391c-0.70312-8.1055 2.8789-15.988 9.4492-20.793 6.5664-4.8008 15.164-5.8281 22.676-2.7031s12.848 9.9453 14.07 17.988l11.367 94.172 53.625 28.125 59.578-53.32v-66.164l-78.516-53.906c-5.0586-3.4648-8.5273-8.8086-9.6289-14.84-1.1055-6.0352 0.24219-12.258 3.7461-17.293 3.5508-5.0273 8.9336-8.457 14.988-9.5469 6.0547-1.0938 12.297 0.23828 17.379 3.7109l52.031 35.766v-54.328c0.25781-8.1367 4.7461-15.543 11.84-19.539 7.0898-3.9961 15.754-3.9961 22.844 0 7.0938 3.9961 11.582 11.402 11.84 19.539v54.328l52.008-35.859c5.082-3.4727 11.324-4.8047 17.379-3.7109 6.0547 1.0898 11.438 4.5195 14.988 9.5469 3.5078 5.0312 4.8633 11.258 3.7578 17.293-1.1055 6.0352-4.5742 11.379-9.6406 14.84l-78.492 53.906v66.07l59.578 53.344 53.648-28.125 11.367-94.172c1.2227-8.043 6.5586-14.863 14.07-17.988s16.109-2.0977 22.676 2.7031c6.5703 4.8047 10.152 12.688 9.4492 20.793l-7.5469 62.391 48.281-25.336c5.4531-2.8477 11.809-3.4375 17.695-1.6367 5.8828 1.7969 10.824 5.8359 13.758 11.246 2.8828 5.4219 3.4766 11.77 1.6562 17.633-1.8242 5.8594-5.9141 10.754-11.359 13.586l-48.281 25.359 56.25 28.945c5.4531 2.8242 9.5547 7.7148 11.387 13.578 1.8281 5.8633 1.2422 12.215-1.6367 17.641-2.8906 5.4258-7.8008 9.5-13.664 11.34-5.8672 1.8398-12.223 1.3047-17.695-1.4961l-84.68-43.688-55.594 29.203v69.141zm248.44-50.672c-12.633 21.938-47.273 23.789-56.906-1.4531-10.406-27.258-5.9766-102.54 41.203-80.531 0.99609 0.47656 1.9453 1.0391 2.8359 1.6875 10.102 4.4062 17.273 14.719 19.617 26.812 3.1406 16.922 1.9219 38.109-6.8672 53.391zm17.578-455.2c-4.6875 3.0469-14.062 4.6875-19.406 2.5312l-2.3438-0.98438c-6.0703-1.5234-11.906-5.0625-14.32-10.594-6.2344-14.062-8.5312-28.688-4.1016-43.828 1.3398-4.5703 3.9805-8.6562 7.6016-11.754 3.6211-3.0938 8.0625-5.0703 12.789-5.6836 10.312-1.3828 18.75 3.3984 24.445 11.719 8.5078 12.902 11.07 28.84 7.0312 43.758-1.8828 6.2461-6.0586 11.547-11.695 14.836z"/>
  <path d="m550.88 609.87v75.164l56.109 50.227 56.109-50.227v-75.164l-56.109-50.227z"/>
  <path d="m398.48 111.98c0 23.637-13.348 42.797-29.812 42.797s-29.812-19.16-29.812-42.797 13.348-42.797 29.812-42.797 29.812 19.16 29.812 42.797"/>
  <path d="m1077.5 932c12.754 7.3672 15.699 26.152 6.5742 41.957-9.125 15.805-26.867 22.648-39.621 15.285-12.758-7.3672-15.703-26.152-6.5781-41.957 9.1289-15.805 26.867-22.648 39.625-15.285"/>
  <path d="m403.76 1111.3c-17.508-9.375-14.062-29.438 6.1875-35.156 23.766-6.7969 56.367-11.203 89.062 0 10.102 3.4922 18.75 6.8672 25.781 10.031 23.812 10.547 18.047 37.5-9 41.859-30.469 5.0625-71.719 5.0156-112.03-16.734z"/>
 </g>
</svg>

<?xml version="1.0" encoding="UTF-8" standalone="no"?>
<!DOCTYPE svg PUBLIC "-//W3C//DTD SVG 1.1//EN" "http://www.w3.org/Graphics/SVG/1.1/DTD/svg11.dtd">
<svg width="100%" height="100%" viewBox="0 0 481 512" version="1.1" xmlns="http://www.w3.org/2000/svg" xmlns:xlink="http://www.w3.org/1999/xlink" xml:space="preserve" xmlns:serif="http://www.serif.com/" style="fill-rule:evenodd;clip-rule:evenodd;stroke-linejoin:round;stroke-miterlimit:2;">
    <g transform="matrix(1,0,0,1,-101.845,-69.1602)">
        <g transform="matrix(0.482281,0,0,0.482281,52.7271,35.8055)">
            <path d="M1097,742.27C1094.16,718.2 1087.16,695.114 1081.74,671.559C1076.33,648.356 1075.41,624.329 1079.02,600.778C1085.77,552.825 1077.17,511.997 1059.01,467.538C1049.91,445.296 1038.64,423.007 1040.68,398.819C1048.27,308.116 1067.3,273.289 1076.47,235.839C1084.79,201.925 1086.31,166.112 1074.83,132.429C1048.88,56.281 969.478,69.148 954.688,106.648C940.297,142.953 936.735,185.304 948.383,220.858C954.031,238.108 965.258,256.225 964.414,274.905C963.547,294.522 940.437,297.194 924.945,290.538C891.105,277.386 864.543,250.339 852.007,216.265C840.288,184.976 792.499,112.975 792.476,112.925C766.414,70.433 715.671,60.941 670.316,75.613C617.089,92.769 579.543,137.98 529.176,160.925C478.293,184.105 421.876,191.956 370.176,213.519C344.207,224.394 319.668,238.035 299.114,257.441C295.758,260.886 292.629,264.543 289.739,268.386C278.255,277.48 272.137,291.191 271.294,306.378C270.849,314.769 278.7,321.308 286.599,321.566C294.498,321.824 298.951,319.222 305.841,315.378C308.466,313.878 311.185,309.8 314.63,310.48C319.107,311.324 320.794,320.933 320.747,323.722C320.443,341.113 307.809,357.495 297.802,370.808C281.911,391.902 253.529,430.62 224.091,406.503C196.435,383.862 202.997,335.745 207.685,304.973C213.193,268.364 224.607,232.317 224.63,195.003C224.63,163.925 216.193,131.276 193.95,108.284C172.294,85.995 140.63,83.065 121.434,109.643C102.239,136.221 93.075,211.993 113.067,315.473C122.02,361.809 125.559,409.012 131.676,455.773C131.887,457.344 132.074,458.938 132.262,460.461C132.262,461.258 132.262,462.055 132.379,462.805C133.035,478.43 134.16,494.055 135.754,509.68C137.231,524.211 139.035,538.719 141.473,553.133C143.981,568.016 145.41,584.235 153.192,597.406C154.7,600.367 158.001,601.953 161.254,601.273C163.883,602.078 166.727,601.73 169.083,600.312C177.989,594.968 180.802,584.867 189.145,579.078C199.926,571.883 214.504,574.226 224.02,582.43C240.426,596.774 242.184,624.618 243.192,644.68C244.34,667.321 242.559,692.094 223.692,707.563C205.34,722.633 177.544,719.469 170.137,694.579C169.484,692.344 168.394,690.266 166.926,688.461C161.91,676.344 144.332,675.969 138.801,689.821C129.965,712.11 134.558,737.446 138.801,760.274C143.746,786.477 149.793,811.836 146.816,838.79C141.449,887.54 120.238,940.91 151.926,985.7C179.699,1024.98 231.004,1034.43 276.146,1029.36C282.357,1028.66 343.412,1024.68 367.787,1024.39C397.107,1023.93 487.017,1026.74 538.877,1055.8C564.775,1070.29 592.01,1081.72 619.033,1093.89C675.939,1119.55 740.603,1125.27 802.523,1123C833.8,1121.9 864.929,1118.21 895.593,1111.96C910.386,1109.16 924.863,1104.9 938.812,1099.23C945.745,1096.23 952.312,1092.45 958.382,1087.96C964.35,1084.66 969.757,1080.44 974.39,1075.44L974.694,1075.18C976.491,1073.8 977.952,1072.04 978.96,1070C981.347,1066.85 983.464,1063.5 985.288,1060C990.679,1049.61 984.304,1032.41 970.288,1034.03C949.194,1036.37 901.968,1049.96 889.405,1025.87C875.108,998.425 897.913,957.714 909.069,932.776C922.432,903.01 937.296,873.944 953.6,845.682C964.358,826.932 977.717,800.846 997.827,788.448C1008.47,788.612 1017.82,789.292 1023.26,802.768C1029.52,818.213 1030.29,832.557 1028.06,848.776C1027.01,856.159 1030.66,864.245 1037.2,866.987C1043.65,872.776 1053.19,874.159 1060.12,865.417C1088.11,830.167 1102.29,787.276 1096.99,742.277L1097,742.27ZM187.79,200.18C187.438,212.766 183.735,222.868 173.024,230.25C165.032,235.734 150.594,232.312 146.446,223.336C142.008,214.062 139.399,204.02 138.758,193.758C138.266,185.414 138.618,172.43 143.938,165.469C146.985,161.266 151.298,158.145 156.243,156.563C160.313,154.961 164.786,154.715 169.009,155.852C173.228,156.992 176.97,159.461 179.681,162.891C187.837,172.547 188.119,188.18 187.791,200.18L187.79,200.18ZM256.579,967.97C254.024,969.532 251.294,970.79 248.446,971.72C224.61,984.892 198.196,969.845 187.508,947.439C187.368,947.205 187.204,946.994 187.039,946.759C184.938,943.47 183.727,939.689 183.524,935.79C178.227,913.665 182.539,886.759 204.126,874.852C227.915,861.821 258.642,873.727 272.095,895.946C286.064,919.266 280.298,953.18 256.579,967.969L256.579,967.97ZM775.229,307.03C779.565,288.28 798.854,274.428 818.12,280.288C819.128,280.581 820.116,280.94 821.073,281.366C834.198,285.163 843.925,295.428 848.706,308.671C854.495,324.632 848.542,343.991 833.823,352.968C819.104,361.945 799.37,358.968 787.229,347.226C776.479,336.847 771.928,321.605 775.229,307.031L775.229,307.03ZM636.339,138.28C657.433,128.202 676.839,117.491 701.097,121.405C723.386,125.038 740.8,138.655 752.659,157.288C763.557,174.397 745.347,190.593 729.737,187.593C718.768,187.593 708.948,182.085 697.979,179.155C683.237,174.898 667.725,174.042 652.604,176.648C630.479,180.726 613.463,149.086 636.338,138.281L636.339,138.28ZM765.249,711.94L850.022,668.252C855.475,665.482 861.795,664.955 867.631,666.779C873.471,668.607 878.361,672.643 881.264,678.025C884.104,683.467 884.651,689.814 882.787,695.658C880.92,701.506 876.795,706.361 871.326,709.15L815.076,738.095L863.357,763.454C868.803,766.286 872.893,771.181 874.716,777.04C876.537,782.904 875.943,789.251 873.06,794.673C870.127,800.083 865.185,804.122 859.302,805.919C853.415,807.72 847.06,807.13 841.607,804.283L793.326,778.947L801.061,841.408C801.807,847.525 800.08,853.689 796.268,858.529C792.451,863.368 786.861,866.486 780.741,867.189C779.803,867.189 778.866,867.353 777.952,867.353C772.284,867.361 766.807,865.298 762.557,861.552C758.303,857.806 755.568,852.634 754.865,847.009L743.498,752.837L689.076,724.056L630.482,776.65L630.482,842.697L708.974,896.603C714.04,900.064 717.509,905.408 718.615,911.443C719.72,917.478 718.365,923.705 714.857,928.736C711.306,933.763 705.923,937.193 699.869,938.283C693.814,939.377 687.572,938.045 682.49,934.572L630.482,898.806L630.482,953.04C630.224,961.177 625.736,968.583 618.642,972.579C611.552,976.575 602.888,976.575 595.798,972.579C588.704,968.583 584.216,961.177 583.958,953.04L583.958,898.899L531.927,934.665C526.9,938.392 520.579,939.927 514.404,938.919C508.228,937.911 502.724,934.446 499.142,929.313C495.564,924.181 494.212,917.817 495.4,911.672C496.587,905.527 500.208,900.125 505.443,896.695L583.959,842.789L583.959,776.648L525.014,724.078L470.522,752.672L459.155,846.844C458.452,852.469 455.717,857.641 451.463,861.387C447.213,865.134 441.737,867.196 436.068,867.188C435.154,867.188 434.217,867.188 433.279,867.024C427.158,866.321 421.568,863.204 417.752,858.364C413.94,853.524 412.213,847.36 412.959,841.243L420.506,778.852L372.225,804.188C366.803,807.184 360.401,807.883 354.459,806.122C348.518,804.36 343.533,800.286 340.619,794.817C337.705,789.348 337.107,782.938 338.959,777.024C340.814,771.11 344.959,766.188 350.475,763.36L398.756,738.001L342.506,709.056C337.045,706.263 332.924,701.407 331.057,695.564C329.19,689.72 329.737,683.373 332.569,677.931C335.455,672.501 340.362,668.423 346.229,666.576C352.096,664.732 358.452,665.267 363.928,668.064L448.701,711.752L504.271,682.572L504.271,613.478L448.818,584.298L364.045,627.986C358.591,631.005 352.154,631.697 346.186,629.904C340.217,628.111 335.221,623.986 332.338,618.463C329.451,612.94 328.912,606.486 330.849,600.561C332.787,594.639 337.033,589.749 342.622,586.995L398.872,558.05L350.591,532.691C345.154,529.875 341.064,525.007 339.224,519.164C337.384,513.324 337.951,506.988 340.795,501.566C343.728,496.156 348.67,492.117 354.553,490.32C360.439,488.519 366.795,489.109 372.248,491.957L420.529,517.293L412.982,454.902C412.279,446.796 415.861,438.914 422.431,434.109C428.997,429.308 437.595,428.281 445.107,431.406C452.619,434.531 457.955,441.351 459.177,449.394L470.544,543.566L524.169,571.691L583.747,518.371L583.747,452.207L505.231,398.301C500.172,394.836 496.704,389.492 495.602,383.461C494.496,377.425 495.844,371.203 499.348,366.168C502.899,361.14 508.282,357.711 514.336,356.621C520.391,355.527 526.633,356.859 531.715,360.332L583.746,396.098L583.746,341.77C584.004,333.633 588.492,326.227 595.586,322.231C602.676,318.234 611.34,318.234 618.43,322.231C625.524,326.227 630.012,333.633 630.27,341.77L630.27,396.097L682.278,360.239C687.36,356.766 693.602,355.434 699.657,356.528C705.712,357.617 711.095,361.047 714.645,366.075C718.153,371.106 719.508,377.333 718.403,383.368C717.297,389.403 713.829,394.747 708.762,398.208L630.27,452.114L630.27,518.183L689.848,571.528L743.496,543.403L754.863,449.231C756.086,441.188 761.422,434.368 768.933,431.243C776.445,428.118 785.042,429.145 791.609,433.946C798.18,438.75 801.761,446.634 801.058,454.739L793.512,517.13L841.793,491.794C847.246,488.946 853.602,488.356 859.488,490.157C865.37,491.954 870.312,495.993 873.246,501.403C876.128,506.825 876.722,513.173 874.902,519.036C873.078,524.895 868.988,529.79 863.543,532.622L815.262,557.981L871.512,586.926C876.965,589.75 881.066,594.641 882.899,600.504C884.727,606.367 884.141,612.719 881.262,618.145C878.372,623.571 873.461,627.645 867.598,629.485C861.731,631.325 855.375,630.79 849.903,627.989L765.223,584.301L709.629,613.504L709.629,682.645L765.249,711.94ZM1013.69,661.268C1001.06,683.206 966.416,685.057 956.783,659.815C946.377,632.557 950.806,557.275 997.986,579.284C998.982,579.76 999.931,580.323 1000.82,580.971C1010.92,585.378 1018.1,595.69 1020.44,607.783C1023.58,624.705 1022.36,645.892 1013.57,661.174L1013.69,661.268ZM1031.27,206.068C1026.58,209.115 1017.21,210.755 1011.86,208.599L1009.52,207.615C1003.45,206.091 997.611,202.552 995.197,197.021C988.963,182.959 986.666,168.333 991.096,153.193C992.435,148.623 995.076,144.537 998.697,141.439C1002.32,138.345 1006.76,136.369 1011.49,135.755C1021.8,134.372 1030.24,139.154 1035.93,147.474C1044.44,160.376 1047,176.314 1042.96,191.232C1041.08,197.478 1036.9,202.779 1031.27,206.068L1031.27,206.068Z" style="fill:white;fill-rule:nonzero;"/>
            <path d="M550.88,609.87L550.88,685.034L606.989,735.261L663.098,685.034L663.098,609.87L606.989,559.643L550.88,609.87Z" style="fill:white;fill-rule:nonzero;"/>
            <path d="M398.48,111.98C398.48,135.617 385.132,154.777 368.668,154.777C352.204,154.777 338.856,135.617 338.856,111.98C338.856,88.343 352.204,69.183 368.668,69.183C385.132,69.183 398.48,88.343 398.48,111.98" style="fill:white;fill-rule:nonzero;"/>
            <path d="M1077.5,932C1090.25,939.367 1093.2,958.152 1084.07,973.957C1074.95,989.762 1057.21,996.605 1044.45,989.242C1031.69,981.875 1028.75,963.09 1037.88,947.285C1047,931.48 1064.74,924.637 1077.5,932" style="fill:white;fill-rule:nonzero;"/>
            <path d="M403.76,1111.3C386.252,1101.92 389.698,1081.86 409.948,1076.14C433.714,1069.35 466.315,1064.94 499.01,1076.14C509.111,1079.64 517.76,1083.01 524.79,1086.17C548.603,1096.72 542.838,1123.67 515.79,1128.03C485.321,1133.1 444.071,1133.05 403.76,1111.3L403.76,1111.3Z" style="fill:white;fill-rule:nonzero;"/>
        </g>
    </g>
</svg>
